X:156
%%etbk:tnset id:53,pos:4,rep:3x,ant:
%%etbk:tnset id:182,pos:3,rep:3x,ant:
%%etbk:tnset id:274,pos:1,rep:2x,ant:
%%etbk:wsite http://www.thesession.org/tunes/display/560
%%etbk:pldat 2016-06-23T18:39,2016-06-22T15:36,2016-06-21T15:26,2016-06-20T18:11,2016-06-16T18:14,2016-05-05T15:26,2016-05-03T17:24,2016-03-11T16:36,2016-03-09T16:37,2016-03-08T17:13,2016-03-05T13:38,2016-02-26T17:19,2016-02-16T17:08,2016-02-08T18:55,2016-02-07T14:56,2015-11-03T15:19,2015-10-28T15:47,2015-10-25T13:52,2015-10-22T18:21,2015-10-06T16:59,2015-09-29T16:15,2015-06-24T18:58,2015-06-23T18:07,2015-06-21T15:53,2015-06-16T17:06,2015-05-27T18:17,2015-03-13T19:03,2015-03-11T16:34,2015-03-05T18:49,2015-02-22T16:28,2015-02-17T17:21,2015-02-04T16:43,2015-01-27T15:50,2014-11-06T18:20,2014-11-04T16:09,2014-11-02T15:33,2014-10-29T15:24,2014-10-27T18:36,2014-10-20T18:09,2014-10-11T15:15,2014-08-21T19:30,2014-08-19T18:05,2014-06-23T18:16,2014-06-11T16:12,2014-06-07T15:14,2014-06-03T15:15,2014-05-28T16:38,2014-03-06T18:21,2014-03-03T18:26,2014-02-27T18:13,2014-02-18T16:23,2014-01-22T16:44,2014-01-21T17:41,2014-01-19T14:01,2014-01-18T14:33,2014-01-15T16:21,2014-01-08T15:33,2014-01-06T18:32,2013-10-30T17:18,2013-10-29T16:04,2013-10-27T14:50,2013-10-24T18:36,2013-10-18T15:42,2013-10-16T16:06,2013-10-13T15:10,2013-10-08T15:36
T: Tarbolton, The
Z: Piano Box Version by Martin Fleischmann
H: Created 2013-02-19 /  Last Modified 2013-02-19
M: 4/4
L: 1/8
R: reel
K: Edor
|: "em"!1!E2!5!ed e2!2!B!1!A | !3!GBAF !3!GF!1!E!2!F | "D"!1!D2!5!dc d2!2!A!1!G | !3!FGAG !3!F!1!DDF |
"em"!1!E2!5!e!1!d !2!efge | !3!fedf !2!e!1!d!2!B!1!A | !3!G2!5!B!3!G "bm"!2!F!1!G!2!A!4!=c | !3!B!1!G!4!A!2!F "em"!3!G!1!EE2 :|
|: "em"!3!gfef !3!g!1!e!5!be | !3!gebe !3!gf!1!e!2!f | "D"!1!d2 !5!f!3!d !1!A!3!d!5!f!3!d | !2!B!4!d!1!A!3!G !2!F!1!DD!2!F |
"em"!3!G2!5!B!3!G "D"!2!F2AF | "em"!1!E!5!e!2!ef !4!gfe!1!d | !2!B2!4!dB "D"!1!A2!3!GA | !5!BG!4!AF "em"!3!G!1!EE2 :|


